X: 367
T: James O'Brien   #2
R: waltz, air
%S: s:2 b:22(11+11)
B: O'Neill's 1850 #367
O: F.O'Neill.
Z: Chris Falt, cfalt@trytel.com
Q: "Moderate."
M: 3/4
L: 1/4
K: G
d "^A"[| edB | GAB |[1 EGE | D2E/F/ |.GFG |TedB | A3- | A2 :|[2 EGc | e2f/e/ | dBG |
| AEF | G3- | "^fine"G2 "^B"|]| d | ede |Tgfe | fed | B2d |Tede |Tgfe | g3- | g2 "^->A2"g/f/ |]
